X:1
T:Title
%%score { ( 1 3 ) | ( 2 4 ) }
L:1/8
Q:1/4=118
M:3/4
K:Bb
V:1 treble nm="Grand Piano"
V:3 treble 
V:2 bass 
V:4 bass 
V:1
 [DF]4 [DB]2 | B4 A2 | F4 c2 | [Ec]4 B2 | F4 [Fd]2 | [Gd]4 [Gc]2 |[M:2/4] e4 |[M:1/4] A2 | %8
w: J.~E.~Gould *||||||||
[M:3/4] [DB]6 | [DF]4 [DB]2 | B4 A2 | F4 c2 | [Ec]4 B2 | F4 [Fd]2 | [Gd]4 [Gc]2 |[M:2/4] [Fe]4 | %16
w: ||||||||
[M:1/4] [EFA]2 |[M:3/4] [DFB]6 | A4 A2 | A4 F2 | D4 B2 | B4 A2 | [Ac]4 [Ac]2 | [Ac]4 [FA]2 | %24
w: ||||||||
 [FB]4 [Bd]2 | [Bd]4 [Ac]2 | [DF]4 [DB]2 | B4 A2 | F4 c2 | [Ec]4 B2 | F4 [Fd]2 | [Gd]4 [Gc]2 | %32
w: ||||||||
[M:2/4] [Fe]4 |[M:1/4] [EFA]2 |[M:7/4] [DFB]6 z2 z2 z4 |] %35
w: |||
V:2
 [B,,B,]4 [B,,F,]2 | [F,D]4 [F,C]2 | [F,A,E]4 [F,EF]2 | z2 z2 D2 | [D,B,]4 [D,B,]2 | %5
 [E,B,]4 [E,C]2 |[M:2/4] [F,A,F]4 |[M:1/4] [F,E]2 |[M:3/4] [B,,F,]6 | [B,,B,]4 [B,,F,]2 | %10
 [F,D]4 [F,C]2 | [F,A,E]4 [F,EF]2 | z2 z2 D2 | [D,B,]4 [D,B,]2 | [E,B,]4 [E,C]2 |[M:2/4] [F,A,]4 | %16
[M:1/4] F,2 |[M:3/4] B,,6 | [F,C]4 [F,C]2 | [F,C]4 [F,A,]2 | [F,B,]4 [F,D]2 | [F,D]4 [F,C]2 | %22
 [F,C]4 [F,C]2 | [F,A,C]4 [F,C]2 | [F,D]4 [F,B,]2 | [F,F]6 | [B,,B,]4 [B,,F,]2 | [F,D]4 [F,C]2 | %28
 [F,A,E]4 [F,EF]2 | z2 z2 D2 | [D,B,]4 [D,B,]2 | [E,B,]4 [E,C]2 |[M:2/4] [F,A,]4 |[M:1/4] F,2 | %34
[M:7/4] B,,6 z2 z2 z4 |] %35
V:3
 x6 | x6 | x6 | F6 | x6 | x6 |[M:2/4] x4 |[M:1/4] x2 |[M:3/4] x6 | x6 | x6 | x6 | F6 | x6 | x6 | %15
[M:2/4] x4 |[M:1/4] x2 |[M:3/4] x6 | x6 | x6 | x6 | x6 | x6 | x6 | x6 | x6 | x6 | x6 | x6 | F6 | %30
 x6 | x6 |[M:2/4] x4 |[M:1/4] x2 |[M:7/4] x14 |] %35
V:4
 x6 | x6 | x6 | B,,6 | x6 | x6 |[M:2/4] x4 |[M:1/4] x2 |[M:3/4] x6 | x6 | x6 | x6 | B,,6 | x6 | %14
 x6 |[M:2/4] x4 |[M:1/4] x2 |[M:3/4] x6 | x6 | x6 | x6 | x6 | x6 | x6 | x6 | x6 | x6 | x6 | x6 | %29
 B,,6 | x6 | x6 |[M:2/4] x4 |[M:1/4] x2 |[M:7/4] x14 |] %35

